icons/scalable/qubes-delete-x.svg

<svg width="24" height="25" viewBox="0 0 24 25" fill="none" xmlns="http://www.w3.org/2000/svg">
<path d="M3 6.25293H21" stroke="black" stroke-width="2" stroke-linecap="round" stroke-linejoin="round"/>
<path d="M19 6.25293V20.2529C19 21.2529 18 22.2529 17 22.2529H7C6 22.2529 5 21.2529 5 20.2529V6.25293" stroke="black" stroke-width="2" stroke-linecap="round" stroke-linejoin="round"/>
<path d="M8 6.25293V4.25293C8 3.25293 9 2.25293 10 2.25293H14C15 2.25293 16 3.25293 16 4.25293V6.25293" stroke="black" stroke-width="2" stroke-linecap="round" stroke-linejoin="round"/>
<path d="M10 11.2529V17.2529" stroke="black" stroke-width="2" stroke-linecap="round" stroke-linejoin="round"/>
<path d="M14 11.2529V17.2529" stroke="black" stroke-width="2" stroke-linecap="round" stroke-linejoin="round"/>
</svg>

<svg xmlns="http://www.w3.org/2000/svg" width="24" height="25" fill="none" viewBox="0 0 24 25">
    <path stroke="#000" stroke-linecap="round" stroke-linejoin="round" stroke-width="2" d="M3 6.253h18m-2 0v14c0 1-1 2-2 2H7c-1 0-2-1-2-2v-14m3 0v-2c0-1 1-2 2-2h4c1 0 2 1 2 2v2m-6 5v6m4-6v6"/>
</svg>
